dist/img/svg/html.svg

<svg width="70" height="80" viewBox="0 0 70 80" xmlns="http://www.w3.org/2000/svg">
<path d="M0 0H70L63.6333 71.8767L34.9233 80L6.37667 71.8733L0 0ZM23.4367 32.5L22.6633 23.44L56.1933 23.45L56.96 14.71L13.04 14.7L15.3667 41.4H45.7867L44.7 52.82L35 55.5L25.15 52.8L24.5233 45.7667H15.8267L16.9267 59.67L35 64.5033L52.93 59.6933L55.41 32.5033H23.4367V32.5Z" />
</svg>

<svg width="70" height="80" viewBox="0 0 70 80" xmlns="http://www.w3.org/2000/svg"><path d="M0 0h70l-6.367 71.877L34.923 80 6.377 71.873 0 0zm23.437 32.5l-.774-9.06 33.53.01.767-8.74-43.92-.01 2.327 26.7h30.42L44.7 52.82 35 55.5l-9.85-2.7-.627-7.033h-8.696l1.1 13.903L35 64.503l17.93-4.81 2.48-27.19H23.437V32.5z"/></svg>
